X:1
T:Enkelten yö
T:Enkelten yö
T:muk. Tarvo Laakso
T:sov. Tarja Laitinen
C:sov. Tarja Laitinen
%%score [ 1 2 3 ]
L:1/8
M:4/4
K:G
V:1 treble nm="Viulu" snm="Vln."
V:2 treble-8 transpose=-14 nm="Tenorisaksofoni" snm="T. Sax."
V:3 bass nm="Piano" snm="Pno."
V:1
 z4 z[Q:1/4=80] B, B,E | D3 D E>E CE | G4 D D B,A, | G,2 (3:2:2G,B,/C D2 CA, | (G,4 G,2) z2 | %5
w: Hil- jai- nen|yö vain täh- ti tai- vas|lois- taa on juh- la|yö, syn- ty- mä- yö Kris- tuk-|sen *|
 z4 z B, B,E | D3 D EE CE | G4 D D ^CB, | F3 F F>F (3FGF | B,6 D2 | D2 E2 A,3 D | E>D GB, E2 D D | %12
w: Kau- an jo|sai maa- il- ma tus- kaa|huu- taa. Hän kuu- li|sen, soi meil- le loh- du- tuk-|sen. Pian|temp- pe- lin taas|aa- mun kel- lot kut- suu, maa|
 D2 E2 A,3 D | ED BB/A/ G4 | z8 | z8 | B6 BG | (A4 A3) A | (c4 c)AAA | c3 d/c/ B3 B | (d4 d)c cA | %21
w: kau- nis on, tie|kir- kas toi- vi- on. *||||||||
 (B4 B)c BA | (G4 G2) AG | G8 | z8 | z8 | z8 | z8 | z8 | z4 z2 z G | A4 AFBB | B3 (3c/B/A/ GGFE | %32
w: |||||||||||
 D4 D2 ED | D4 D3 G | A4 AFdd | d3 (3:2:5e/d/B/ ce/-e/dc z/ | B4 B2 cB | B8 |] %38
w: ||||||
V:2
 z8 | z8 | z8 | z8 | z8 | z8 | z8 | z8 | z8 | z8 | z8 | z8 |[K:bass] z8 | z8 | z8 | z8 | F6 ^GA | %17
w: ||||||||||||||||Saa pol- vil-|
 (B4 B3) B | (d4 d)B BB | ^c4 c3 c | (e4 e)d dd | (^c4 c)d dd | (e4 e2) BB | A8 | z8 | z8 | z8 | %27
w: leen * tuo|tai- vaan kan- san *|vei- suu tää|yö * on en- kel-|ten, * kun Kris- tus|toi * rak- kau-|den.||||
 z8 | z8 | z4 z2 z A | (^G4 G)B BB | (^c4 d)d dd | (^c4 A2) BA | (A4 A3) A | (d4 d)d dd | %35
w: ||Tää|yö * on en- kel-|ten * kun Kris- tus|toi * rak- kau-|den * Tää|yö * on en- kel-|
 (^c4 d) d dd | (e4 e2) BB | A8 |] %38
w: ten, * kun Kris- tus|toi * rak- kau-|den.|
V:3
 z8 | z8 | z8 | z8 | z8 | z8 | z8 | z8 | z8 | z8 | z8 | z8 | z8 | z8 | z8 | z8 | E,6 E,E, | %17
 (B,,4 B,,3) B,, | (A,,4 A,,)A,,A,,A,, | E,4 D,3 C, | B,,4 B,,D,F,F, | (G,4 G,)C,C,C, | %22
 (G,,4 G,,2) D,D, | G,,8 | z8 | z8 | z8 | z8 | z8 | z4 z2 z G,, | (D,4 D,)D,D,D, | %31
 (G,,4 C,)C,C,C, | (G,4 G,,2) G,,G,, | (G,,2 B,,2) D,3 G, | (D,4 D,)D,F,F, | (G,4 C,)C,C,C, | %36
 (G,,4 G,,2) D,D, | G,,8 |] %38

